icons/coughing.svg

<svg width="48" height="48" viewBox="0 0 48 48" fill="none" xmlns="http://www.w3.org/2000/svg">
<path fill-rule="evenodd" clip-rule="evenodd" d="M40.2716 31.501L40.3601 31.5168C40.3646 31.5072 40.369 31.4976 40.3734 31.488L40.2716 31.501ZM24 40C25.8819 40 27.6879 39.6751 29.365 39.0783L31.4586 40.3868C29.1861 41.4228 26.6605 42 24 42C14.0589 42 6 33.9411 6 24C6 14.0589 14.0589 6 24 6C33.9411 6 42 14.0589 42 24C42 24.4156 41.9859 24.828 41.9582 25.2366L39.931 25.4958C39.9767 25.0033 40 24.5044 40 24C40 15.1634 32.8366 8 24 8C15.1634 8 8 15.1634 8 24C8 32.8366 15.1634 40 24 40Z" fill="black"/>
<path fill-rule="evenodd" clip-rule="evenodd" d="M17.2411 18.3488C17.5703 17.9651 18.1341 17.8875 18.5547 18.1679L21.5547 20.1679C21.8329 20.3534 22 20.6656 22 21C22 21.3344 21.8329 21.6466 21.5547 21.832L18.5547 23.8321C18.128 24.1165 17.5554 24.0321 17.2289 23.6367C16.9024 23.2413 16.9279 22.663 17.288 22.2978C17.6131 21.9681 18.0451 21.6391 18.3755 21.3874C18.487 21.3025 18.5869 21.2265 18.6672 21.1621C18.7344 21.1083 18.7916 21.0606 18.8399 21.0183C18.7843 20.9697 18.7179 20.9144 18.6389 20.8512C18.5704 20.7963 18.4903 20.7344 18.4025 20.6665C18.0611 20.4024 17.6039 20.0489 17.2619 19.6747C16.9208 19.3015 16.9119 18.7325 17.2411 18.3488Z" fill="black"/>
<path fill-rule="evenodd" clip-rule="evenodd" d="M34.7589 18.3488C34.4297 17.9651 33.8659 17.8875 33.4453 18.1679L30.4453 20.1679C30.1671 20.3534 30 20.6656 30 21C30 21.3344 30.1671 21.6466 30.4453 21.832L33.4453 23.8321C33.872 24.1165 34.4446 24.0321 34.7711 23.6367C35.0976 23.2413 35.0721 22.663 34.712 22.2978C34.3869 21.9681 33.9549 21.6391 33.6245 21.3874C33.513 21.3025 33.4131 21.2265 33.3328 21.1621C33.2656 21.1083 33.2084 21.0606 33.1601 21.0183C33.2157 20.9697 33.2821 20.9144 33.3611 20.8512C33.4296 20.7963 33.5097 20.7344 33.5975 20.6665C33.9389 20.4024 34.3961 20.0489 34.7381 19.6747C35.0792 19.3015 35.0881 18.7325 34.7589 18.3488Z" fill="black"/>
<path fill-rule="evenodd" clip-rule="evenodd" d="M26 35C28.2091 35 30 33.2091 30 31C30 28.7909 28.2091 27 26 27C23.7909 27 22 28.7909 22 31C22 33.2091 23.7909 35 26 35ZM26 37C29.3137 37 32 34.3137 32 31C32 27.6863 29.3137 25 26 25C22.6863 25 20 27.6863 20 31C20 34.3137 22.6863 37 26 37Z" fill="black"/>
<path fill-rule="evenodd" clip-rule="evenodd" d="M41.9893 30.5247C41.9778 31.0813 41.5255 31.4998 40.9791 31.4596L39.4294 31.3453C38.883 31.305 38.4494 30.8212 38.461 30.2646C38.4725 29.7081 38.9247 29.2896 39.4711 29.3298L41.0209 29.4441C41.5672 29.4843 42.0008 29.9682 41.9893 30.5247Z" fill="black"/>
<path fill-rule="evenodd" clip-rule="evenodd" d="M37.2441 30.1749C37.2326 30.7315 36.7803 31.15 36.234 31.1097L35.0868 31.0251C34.5404 30.9849 34.1068 30.501 34.1183 29.9445C34.1299 29.3879 34.5821 28.9694 35.1285 29.0097L36.2757 29.0942C36.8221 29.1345 37.2557 29.6183 37.2441 30.1749Z" fill="black"/>
<path fill-rule="evenodd" clip-rule="evenodd" d="M35.5701 38.0819C35.9581 37.7097 36.5846 37.745 36.9694 38.1608L38.829 40.1698C39.2139 40.5855 39.2113 41.2243 38.8233 41.5965C38.4353 41.9687 37.8088 41.9333 37.424 41.5176L35.5643 39.5086C35.1795 39.0929 35.182 38.4541 35.5701 38.0819Z" fill="black"/>
<path fill-rule="evenodd" clip-rule="evenodd" d="M32.4428 34.704C32.8308 34.3318 33.4574 34.3671 33.8422 34.7829L34.7355 35.7479C35.1203 36.1637 35.1178 36.8024 34.7298 37.1746C34.3418 37.5468 33.7153 37.5115 33.3304 37.0957L32.4371 36.1307C32.0523 35.7149 32.0548 35.0762 32.4428 34.704Z" fill="black"/>
<path fill-rule="evenodd" clip-rule="evenodd" d="M39.8125 35.3708C40.01 34.8615 40.5832 34.6335 41.0928 34.8615L41.2661 34.9391C41.7757 35.1671 42.0287 35.7648 41.8312 36.2741C41.6337 36.7834 41.0605 37.0114 40.5509 36.7834L40.3776 36.7059C39.868 36.4779 39.615 35.8802 39.8125 35.3708Z" fill="black"/>
<path fill-rule="evenodd" clip-rule="evenodd" d="M33.6778 32.6257C33.8753 32.1164 34.4485 31.8884 34.958 32.1164L38.2297 33.5803C38.7393 33.8083 38.9922 34.406 38.7947 34.9154C38.5972 35.4247 38.024 35.6527 37.5145 35.4247L34.2428 33.9608C33.7333 33.7328 33.4803 33.135 33.6778 32.6257Z" fill="black"/>
</svg>

<svg
  xmlns="http://www.w3.org/2000/svg"
  width="24"
  height="24"
  viewBox="0 0 24 24"
  fill="none"
  stroke="currentColor"
  stroke-width="2"
  stroke-linecap="round"
  stroke-linejoin="round"
>
  <path
    fill-rule="evenodd"
    d="m40.272 31.501.088.016.013-.029zM24 40c1.882 0 3.688-.325 5.365-.922l2.094 1.309A17.9 17.9 0 0 1 24 42c-9.941 0-18-8.059-18-18S14.059 6 24 6s18 8.059 18 18q0 .624-.042 1.237l-2.027.259Q40 24.756 40 24c0-8.837-7.163-16-16-16S8 15.163 8 24s7.163 16 16 16"
    clip-rule="evenodd"
  />
  <path
    fill-rule="evenodd"
    d="M17.241 18.349a1 1 0 0 1 1.314-.181l3 2a1 1 0 0 1 0 1.664l-3 2a1 1 0 0 1-1.267-1.534c.325-.33.757-.659 1.087-.91.112-.086.212-.162.292-.226q.1-.08.173-.144a6 6 0 0 0-.201-.167l-.236-.184c-.342-.265-.8-.618-1.141-.992a1 1 0 0 1-.02-1.326"
    clip-rule="evenodd"
  />
  <path
    fill-rule="evenodd"
    d="M34.759 18.349a1 1 0 0 0-1.314-.181l-3 2a1 1 0 0 0 0 1.664l3 2a1 1 0 0 0 1.267-1.534c-.325-.33-.757-.659-1.088-.91l-.291-.226a5 5 0 0 1-.173-.144q.083-.072.201-.167l.236-.184c.342-.265.8-.618 1.141-.992a1 1 0 0 0 .02-1.326"
    clip-rule="evenodd"
  />
  <path
    fill-rule="evenodd"
    d="M26 35a4 4 0 1 0 0-8 4 4 0 0 0 0 8m0 2a6 6 0 1 0 0-12 6 6 0 0 0 0 12"
    clip-rule="evenodd"
  />
  <path
    fill-rule="evenodd"
    d="M41.99 30.525a.94.94 0 0 1-1.01.935l-1.55-.115a1.066 1.066 0 0 1-.969-1.08.94.94 0 0 1 1.01-.935l1.55.114c.546.04.98.524.968 1.08"
    clip-rule="evenodd"
  />
  <path
    fill-rule="evenodd"
    d="M37.244 30.175a.94.94 0 0 1-1.01.935l-1.147-.085a1.066 1.066 0 0 1-.969-1.08.94.94 0 0 1 1.01-.935l1.148.084c.546.04.98.524.968 1.08"
    clip-rule="evenodd"
  />
  <path
    fill-rule="evenodd"
    d="M35.57 38.082c.388-.372 1.015-.337 1.4.079l1.859 2.009c.385.416.382 1.054-.006 1.426-.388.373-1.014.337-1.399-.078l-1.86-2.01c-.385-.415-.382-1.054.006-1.426"
    clip-rule="evenodd"
  />
  <path
    fill-rule="evenodd"
    d="M32.443 34.704c.388-.372 1.014-.337 1.4.079l.892.965c.385.416.383 1.054-.005 1.427-.388.372-1.015.337-1.4-.08l-.893-.964c-.385-.416-.382-1.055.006-1.427"
    clip-rule="evenodd"
  />
  <path
    fill-rule="evenodd"
    d="M39.813 35.37c.197-.508.77-.736 1.28-.508l.173.077c.51.228.763.826.565 1.335-.197.51-.77.737-1.28.51l-.173-.078c-.51-.228-.763-.826-.566-1.335"
    clip-rule="evenodd"
  />
  <path
    fill-rule="evenodd"
    d="M33.678 32.626c.197-.51.77-.738 1.28-.51l3.272 1.464c.51.228.762.826.565 1.335-.198.51-.771.738-1.28.51l-3.272-1.464c-.51-.228-.763-.826-.565-1.335"
    clip-rule="evenodd"
  />
</svg>
